X:1
T:Title
%%score { 1 | 2 }
L:1/8
M:4/4
K:G
V:1 treble nm="Grand Piano"
V:2 bass 
V:1
 z4 z2[Q:1/4=100] D2 | [DB]2 [DB]2 [Dc]2 [A,DF]2 | [CDA]2 [B,DG]4 [G,DG]2 | %3
 [G,EG]3 [G,EG] [G,DF]2 [G,CE]2 |[M:3/4] [B,D]6 |[M:1/4] [B,D]2 |[M:4/4] [DB]2 [DB]2 c2 F2 | %7
 A2 G4 B2 | B3 A E2 A2 |[M:3/4] [DFA]6 |[M:1/4] D2 |[M:4/4] [Fd]2 d2 C2 C2 | B2 [GB]2 z2 [FA]2 | %13
 G3 G F2 E2 |[M:3/4] [^DB]6 |[M:1/4] [^DB]2 |[M:4/4] [EB]2 [GB]2 [^Ge]2 [GB]2 | [Bd]2 c4 c2 | %18
 [Fc]3 [Fc] [FB]2 [FA]2 |[M:3/4] G6 |] %20
V:2
 z4 z2 D,2 | [G,,G,]2 [G,,G,]2 [D,F,]2 D,2 | G,,2 G,,4 B,,2 | C,3 C, C,2 C,2 |[M:3/4] [G,,G,]6 | %5
[M:1/4] [G,,G,]2 |[M:4/4] [G,,G,]2 [G,,G,]2 [D,F,D]2 [D,CD]2 | [G,CD]2 [G,B,D]4 [G,DG]2 | %8
 [A,DE]3 [A,^CE] [A,C]2 [A,CG]2 |[M:3/4][K:bass] D,6 |[M:1/4] D,2 | %11
[M:4/4] [D,A,]2 [F,A,F]2 A,2 D,2 | [G,B,G]2 [G,D]4[K:bass] [D,D]2 | %13
 [E,B,E]3 [E,B,E] [^D,A,B,]2 [E,G,]2 |[M:3/4] [B,,F,]6 |[M:1/4] [B,,F,]2 | %16
[M:4/4] [E,G,]2 [D,G,]2 [E,B,]2 [E,E]2 | [A,E]2 [A,EA]4 [A,G]2 | [D,A,]3 [D,A,] [D,D]2 [D,C]2 | %19
[M:3/4] [G,B,]6 |] %20

